papirus/48x48/apps/lollypop.svg

<svg height="48" viewBox="0 0 48 48.000001" width="48" xmlns="http://www.w3.org/2000/svg"><g transform="translate(0 -1004.3622)"><ellipse cx="24" cy="1028.3624" fill="#fa4b8c" rx="20" ry="19.999804"/><path d="m20.199219 5.4003906c-.512968.094-1.021369.20965-1.525391.34375-.641631.178-1.275836.3877063-1.896484.6289063-.620557.2413-1.226941.5124531-1.820313.8144531-.593304.302-1.17223.6344406-1.732422.9941406-.560326.3599-1.10145.7461563-1.623047 1.1601563-.521559.4138-1.022353.8545591-1.5 1.3183591-.061389.065-.1230853.129413-.1835932.195313.3987472 2.7368 2.4335432 6.070459 4.5761722 8.630859a11 11 0 0 0 -1.494141 5.513672 11 11 0 0 0  .048828.960938c-3.1322739-1.615001-6.4216388-4.288732-7.9003905-7.457032-.07367.1925-.1452216.385378-.2128906.580078-.196722.636-.3599485 1.280994-.4921875 1.933594-.132321.6524-.2323011 1.31221-.2988282 1.97461-.0664199.662499-.0996693 1.326387-.0996093 1.992187-.0000279.177704.0130367.355333.0175781.533203a20 19.999804 0 0 0  .9550781 4.703125c2.5646703.911286 6.2911169.817276 9.4628909.263672a11 11 0 0 0 4.898437 4.484375c-2.722314 1.749627-6.281363 3.149942-9.5429685 3.134766a20 19.999804 0 0 0 9.8183595 5.402343c1.810564-1.842721 3.355975-4.781691 4.353515-7.505859a11 11 0 0 0 6.332032-2.027344c.149731 3.094261-.350198 6.708651-1.833985 9.488282a20 19.999804 0 0 0 9.439453-5.126954c-.626021-2.575411-2.4699-5.533676-4.416015-7.857422a11 11 0 0 0 1.470703-5.476562 11 11 0 0 0 -.054688-1.007812c3.016699 1.548262 6.168258 4.086276 7.730469 7.099609a20 19.999804 0 0 0 1.294922-6.503906c-.0064-.338729-.011227-.677517-.035156-1.015625-.04719-.6642-.126968-1.324269-.240235-1.980469-.104939-.5908-.236842-1.176859-.394531-1.755859-3.121987-1.112601-6.893658-.863557-9.796875-.347657a11 11 0 0 0 -4.892578-4.460937c2.967595-1.9166 6.947253-3.444625 10.445313-3.140625-.231375-.2784-.470638-.549053-.716797-.814453-.463886-.4776-.949735-.932429-1.458985-1.3613285-.50921-.429-1.040359-.8310313-1.589843-1.2070313-.549519-.3759-1.116868-.7257218-1.701172-1.0449218-.584313-.3192-1.185562-.6078875-1.798828-.8671875-.613329-.2593-1.238848-.4888469-1.875-.6855469-.238484-.066-.477993-.1268938-.71875-.1835938-2.16935 1.7150001-4.038472 5.1433438-5.183594 8.2773438a11 11 0 0 0 -.013672 0 11 11 0 0 0 -6.310547 2.005859c-.17197-3.5265.497742-7.7317684 2.509766-10.6054684z" opacity=".2" transform="translate(0 1004.3622)"/><path d="m20.199219 4.4003906c-.512968.094-1.021369.20965-1.525391.34375-.641631.178-1.275836.3877063-1.896484.6289063-.620557.2413-1.226941.5124531-1.820313.8144531-.593304.302-1.17223.6344406-1.732422.9941406-.560326.3599-1.101451.7461563-1.623047 1.1601563-.52156.4138-1.022354.8545594-1.5 1.3183593-.061389.0650001-.1230852.1294125-.1835932.1953126.3987472 2.7368242 2.4335432 6.0704552 4.5761722 8.6308592a11 11 0 0 0 -1.494141 5.513672 11 11 0 0 0  .048828.960938c-3.132274-1.615045-6.4216388-4.288704-7.9003905-7.457032-.07367.1925-.1452216.385378-.2128906.580078-.196722.636-.3599485 1.280994-.4921875 1.933594-.132321.6524-.2323012 1.312209-.2988282 1.97461-.0664199.662499-.0996693 1.326387-.0996093 1.992187-.000074.4713.0155581.943962.0488281 1.414063.04719.664199.1289225 1.324268.2421875 1.980468.104584.5881.2357151 1.171647.3925781 1.748047 2.5670652 1.022615 6.4638964.931379 9.7519534.357422a11 11 0 0 0 4.898437 4.484375c-2.963443 1.904527-6.923736 3.41785-10.4062498 3.115234.231375.2783.4706379.549054.7167969.814454.4638839.477599.9516889.932428 1.4609379 1.361328.50921.4289 1.038405.831131 1.58789 1.207031.549519.376 1.118822.725722 1.703125 1.044922.584313.3192 1.183612.607887 1.796875.867187.61333.2593 1.23885.488847 1.875.685547.24048.066.481819.126494.72461.183594 2.161365-1.709772 4.025127-5.121756 5.169921-8.248047a11 11 0 0 0 6.332032-2.027344c.170575 3.524935-.49924 7.72604-2.509766 10.597656.512966-.094 1.023323-.20965 1.527344-.34375.641631-.1781 1.273883-.387706 1.894531-.628906.620558-.2412 1.228893-.512453 1.822266-.814453.593302-.302 1.170276-.634441 1.730469-.994141.560324-.359799 1.10145-.746156 1.623046-1.160156.52156-.4138 1.022355-.854559 1.5-1.318359.06139-.065.123087-.129513.183594-.195313-.399169-2.739741-2.436882-6.077211-4.582031-8.638672a11 11 0 0 0 1.470703-5.476562 11 11 0 0 0 -.054688-1.007812c3.142835 1.613016 6.451228 4.294353 7.935547 7.474609.07366-.1925.145222-.385378.212891-.580078.196721-.6361.361902-1.281094.494141-1.933594.13232-.6524.230349-1.312209.296875-1.974609.06642-.6626.099669-1.328241.099609-1.994141.000074-.4713-.015558-.942009-.048828-1.412109-.04719-.6642-.126969-1.324269-.240235-1.980469-.10494-.5908-.236842-1.17686-.394531-1.755859-3.121987-1.112649-6.893658-.863574-9.796875-.347657a11 11 0 0 0 -4.892578-4.460937c2.967595-1.916614 6.947253-3.444592 10.445313-3.140625-.231375-.2784-.470638-.549053-.716797-.814453-.463886-.4776004-.949735-.9324285-1.458985-1.3613285-.50921-.429-1.040359-.8310313-1.589843-1.2070313-.549519-.3759-1.116868-.7257218-1.701172-1.0449218-.584313-.3192-1.185562-.6078875-1.798828-.8671875-.613329-.2593-1.238848-.4888469-1.875-.6855469-.238484-.066-.477993-.1268938-.71875-.1835938-2.16935 1.7149176-4.038472 5.1433157-5.183594 8.2773438a11 11 0 0 0 -.013672 0 11 11 0 0 0 -6.310547 2.005859c-.17197-3.526539.497742-7.7317137 2.509766-10.6054684z" fill="#fff" transform="translate(0 1004.3622)"/><path d="m20.634296 1022.3624c-.347811-.01-.634185.2869-.634296.6546v5.3446 5.3447c-.000004.5041.516432.8192.929655.5672l4.380141-2.6723 4.380444-2.6723c.413013-.2522.413013-.8821 0-1.1342l-4.380444-2.6724-4.380141-2.6723c-.08995-.055-.191514-.085-.295359-.088z" fill="#fa4b8c" overflow="visible"/><path d="m24 1008.3622a20 19.999804 0 0 0 -20 20 20 19.999804 0 0 0  .02148.582 20 19.999804 0 0 1  19.97852-19.582 20 19.999804 0 0 1  19.978516 19.418 20 19.999804 0 0 0  .02148-.418 20 19.999804 0 0 0 -20-20z" fill="#fff" opacity=".2"/><path d="m43.978516 1027.7802a20 19.999804 0 0 1 -19.978516 19.582 20 19.999804 0 0 1 -19.978516-19.418 20 19.999804 0 0 0 -.021484.418 20 19.999804 0 0 0  20 20 20 19.999804 0 0 0  20-20 20 19.999804 0 0 0 -.02148-.582z" opacity=".3"/></g></svg>

<?xml version="1.0" encoding="UTF-8" standalone="no"?>
<!-- Created with Inkscape (http://www.inkscape.org/) -->

<svg
   xmlns:dc="http://purl.org/dc/elements/1.1/"
   xmlns:cc="http://creativecommons.org/ns#"
   xmlns:rdf="http://www.w3.org/1999/02/22-rdf-syntax-ns#"
   xmlns:svg="http://www.w3.org/2000/svg"
   xmlns="http://www.w3.org/2000/svg"
   xmlns:sodipodi="http://sodipodi.sourceforge.net/DTD/sodipodi-0.dtd"
   xmlns:inkscape="http://www.inkscape.org/namespaces/inkscape"
   width="48"
   height="48"
   viewBox="0 0 48 48.000001"
   id="svg4450"
   version="1.1"
   inkscape:version="0.91 r13725"
   sodipodi:docname="lollypop.svg">
  <defs
     id="defs4452" />
  <sodipodi:namedview
     id="base"
     pagecolor="#b3b3b3"
     bordercolor="#666666"
     borderopacity="1.0"
     inkscape:pageopacity="0"
     inkscape:pageshadow="2"
     inkscape:zoom="1"
     inkscape:cx="22.007005"
     inkscape:cy="14.730032"
     inkscape:document-units="px"
     inkscape:current-layer="layer1"
     showgrid="false"
     units="px"
     inkscape:window-width="1535"
     inkscape:window-height="876"
     inkscape:window-x="65"
     inkscape:window-y="24"
     inkscape:window-maximized="1"
     showborder="false" />
  <metadata
     id="metadata4455">
    <rdf:RDF>
      <cc:Work
         rdf:about="">
        <dc:format>image/svg+xml</dc:format>
        <dc:type
           rdf:resource="http://purl.org/dc/dcmitype/StillImage" />
        <dc:title></dc:title>
      </cc:Work>
    </rdf:RDF>
  </metadata>
  <g
     inkscape:label="Layer 1"
     inkscape:groupmode="layer"
     id="layer1"
     transform="translate(0,-1004.3622)">
    <ellipse
       style="opacity:1;fill:#fa4b8c;fill-opacity:1;stroke:none;stroke-width:1.00148869;stroke-opacity:1"
       id="path5128"
       cx="24"
       cy="1028.3624"
       rx="20"
       ry="19.999804" />
    <path
       style="opacity:0.2;fill:#000000;fill-opacity:1;stroke:none;stroke-opacity:1"
       d="M 20.199219 5.4003906 C 19.686251 5.4943906 19.17785 5.6100406 18.673828 5.7441406 C 18.032197 5.9221406 17.397992 6.1318469 16.777344 6.3730469 C 16.156787 6.6143469 15.550403 6.8855 14.957031 7.1875 C 14.363727 7.4895 13.784801 7.8219406 13.224609 8.1816406 C 12.664283 8.5415406 12.123159 8.9277969 11.601562 9.3417969 C 11.080003 9.7555969 10.579209 10.196356 10.101562 10.660156 C 10.040173 10.725156 9.9784767 10.789569 9.9179688 10.855469 C 10.316716 13.592269 12.351512 16.925928 14.494141 19.486328 A 11 11 0 0 0 13 25 A 11 11 0 0 0 13.048828 25.960938 C 9.9165541 24.345937 6.6271892 21.672206 5.1484375 18.503906 C 5.0747675 18.696406 5.0032159 18.889284 4.9355469 19.083984 C 4.7388249 19.719984 4.5755984 20.364978 4.4433594 21.017578 C 4.3110384 21.669978 4.2110583 22.329788 4.1445312 22.992188 C 4.0781113 23.654687 4.0448619 24.318575 4.0449219 24.984375 C 4.044894 25.162079 4.0579586 25.339708 4.0625 25.517578 A 20 19.999804 0 0 0 5.0175781 30.220703 C 7.5822484 31.131989 11.308695 31.037979 14.480469 30.484375 A 11 11 0 0 0 19.378906 34.96875 C 16.656592 36.718377 13.097543 38.118692 9.8359375 38.103516 A 20 19.999804 0 0 0 19.654297 43.505859 C 21.464861 41.663138 23.010272 38.724168 24.007812 36 A 11 11 0 0 0 30.339844 33.972656 C 30.489575 37.066917 29.989646 40.681307 28.505859 43.460938 A 20 19.999804 0 0 0 37.945312 38.333984 C 37.319291 35.758573 35.475412 32.800308 33.529297 30.476562 A 11 11 0 0 0 35 25 A 11 11 0 0 0 34.945312 23.992188 C 37.962011 25.54045 41.11357 28.078464 42.675781 31.091797 A 20 19.999804 0 0 0 43.970703 24.587891 C 43.964303 24.249162 43.959476 23.910374 43.935547 23.572266 C 43.888357 22.908066 43.808579 22.247997 43.695312 21.591797 C 43.590373 21.000997 43.45847 20.414938 43.300781 19.835938 C 40.178794 18.723337 36.407123 18.972381 33.503906 19.488281 A 11 11 0 0 0 28.611328 15.027344 C 31.578923 13.110744 35.558581 11.582719 39.056641 11.886719 C 38.825266 11.608319 38.586003 11.337666 38.339844 11.072266 C 37.875958 10.594666 37.390109 10.139837 36.880859 9.7109375 C 36.371649 9.2819375 35.8405 8.8799062 35.291016 8.5039062 C 34.741497 8.1280062 34.174148 7.7781844 33.589844 7.4589844 C 33.005531 7.1397844 32.404282 6.8510969 31.791016 6.5917969 C 31.177687 6.3324969 30.552168 6.10295 29.916016 5.90625 C 29.677532 5.84025 29.438023 5.7793562 29.197266 5.7226562 C 27.027916 7.4376563 25.158794 10.866 24.013672 14 A 11 11 0 0 0 24 14 A 11 11 0 0 0 17.689453 16.005859 C 17.517483 12.479359 18.187195 8.2740906 20.199219 5.4003906 z "
       transform="translate(0,1004.3622)"
       id="path5072" />
    <path
       style="opacity:1;fill:#ffffff;fill-opacity:1;stroke:none;stroke-opacity:1"
       d="M 20.199219 4.4003906 C 19.686251 4.4943906 19.17785 4.6100406 18.673828 4.7441406 C 18.032197 4.9221406 17.397992 5.1318469 16.777344 5.3730469 C 16.156787 5.6143469 15.550403 5.8855 14.957031 6.1875 C 14.363727 6.4895 13.784801 6.8219406 13.224609 7.1816406 C 12.664283 7.5415406 12.123158 7.9277969 11.601562 8.3417969 C 11.080002 8.7555969 10.579208 9.1963563 10.101562 9.6601562 C 10.040173 9.7251563 9.9784768 9.7895687 9.9179688 9.8554688 C 10.316716 12.592293 12.351512 15.925924 14.494141 18.486328 A 11 11 0 0 0 13 24 A 11 11 0 0 0 13.048828 24.960938 C 9.916554 23.345893 6.6271892 20.672234 5.1484375 17.503906 C 5.0747675 17.696406 5.0032159 17.889284 4.9355469 18.083984 C 4.7388249 18.719984 4.5755984 19.364978 4.4433594 20.017578 C 4.3110384 20.669978 4.2110582 21.329787 4.1445312 21.992188 C 4.0781113 22.654687 4.0448619 23.318575 4.0449219 23.984375 C 4.0448479 24.455675 4.06048 24.928337 4.09375 25.398438 C 4.14094 26.062637 4.2226725 26.722706 4.3359375 27.378906 C 4.4405215 27.967006 4.5716526 28.550553 4.7285156 29.126953 C 7.2955808 30.149568 11.192412 30.058332 14.480469 29.484375 A 11 11 0 0 0 19.378906 33.96875 C 16.415463 35.873277 12.45517 37.3866 8.9726562 37.083984 C 9.2040312 37.362284 9.4432941 37.633038 9.6894531 37.898438 C 10.153337 38.376037 10.641142 38.830866 11.150391 39.259766 C 11.659601 39.688666 12.188796 40.090897 12.738281 40.466797 C 13.2878 40.842797 13.857103 41.192519 14.441406 41.511719 C 15.025719 41.830919 15.625018 42.119606 16.238281 42.378906 C 16.851611 42.638206 17.477131 42.867753 18.113281 43.064453 C 18.353761 43.130453 18.5951 43.190947 18.837891 43.248047 C 20.999256 41.538275 22.863018 38.126291 24.007812 35 A 11 11 0 0 0 30.339844 32.972656 C 30.510419 36.497591 29.840604 40.698696 27.830078 43.570312 C 28.343044 43.476312 28.853401 43.360662 29.357422 43.226562 C 29.999053 43.048462 30.631305 42.838856 31.251953 42.597656 C 31.872511 42.356456 32.480846 42.085203 33.074219 41.783203 C 33.667521 41.481203 34.244495 41.148762 34.804688 40.789062 C 35.365012 40.429263 35.906138 40.042906 36.427734 39.628906 C 36.949294 39.215106 37.450089 38.774347 37.927734 38.310547 C 37.989124 38.245547 38.050821 38.181034 38.111328 38.115234 C 37.712159 35.375493 35.674446 32.038023 33.529297 29.476562 A 11 11 0 0 0 35 24 A 11 11 0 0 0 34.945312 22.992188 C 38.088147 24.605204 41.39654 27.286541 42.880859 30.466797 C 42.954519 30.274297 43.026081 30.081419 43.09375 29.886719 C 43.290471 29.250619 43.455652 28.605625 43.587891 27.953125 C 43.720211 27.300725 43.81824 26.640916 43.884766 25.978516 C 43.951186 25.315916 43.984435 24.650275 43.984375 23.984375 C 43.984449 23.513075 43.968817 23.042366 43.935547 22.572266 C 43.888357 21.908066 43.808578 21.247997 43.695312 20.591797 C 43.590372 20.000997 43.45847 19.414937 43.300781 18.835938 C 40.178794 17.723289 36.407123 17.972364 33.503906 18.488281 A 11 11 0 0 0 28.611328 14.027344 C 31.578923 12.11073 35.558581 10.582752 39.056641 10.886719 C 38.825266 10.608319 38.586003 10.337666 38.339844 10.072266 C 37.875958 9.5946656 37.390109 9.1398375 36.880859 8.7109375 C 36.371649 8.2819375 35.8405 7.8799062 35.291016 7.5039062 C 34.741497 7.1280062 34.174148 6.7781844 33.589844 6.4589844 C 33.005531 6.1397844 32.404282 5.8510969 31.791016 5.5917969 C 31.177687 5.3324969 30.552168 5.10295 29.916016 4.90625 C 29.677532 4.84025 29.438023 4.7793562 29.197266 4.7226562 C 27.027916 6.4375738 25.158794 9.8659719 24.013672 13 A 11 11 0 0 0 24 13 A 11 11 0 0 0 17.689453 15.005859 C 17.517483 11.47932 18.187195 7.2741453 20.199219 4.4003906 z "
       transform="translate(0,1004.3622)"
       id="circle5142" />
    <path
       style="color:#000000;font-style:normal;font-variant:normal;font-weight:normal;font-stretch:normal;font-size:medium;line-height:normal;font-family:sans-serif;text-indent:0;text-align:start;text-decoration:none;text-decoration-line:none;text-decoration-style:solid;text-decoration-color:#000000;letter-spacing:normal;word-spacing:normal;text-transform:none;direction:ltr;block-progression:tb;writing-mode:lr-tb;baseline-shift:baseline;text-anchor:start;white-space:normal;clip-rule:nonzero;display:inline;overflow:visible;visibility:visible;opacity:1;isolation:auto;mix-blend-mode:normal;color-interpolation:sRGB;color-interpolation-filters:linearRGB;solid-color:#000000;solid-opacity:1;fill:#fa4b8c;fill-opacity:1;fill-rule:nonzero;stroke:none;stroke-width:1;stroke-linecap:round;stroke-linejoin:round;stroke-miterlimit:4;stroke-dasharray:none;stroke-dashoffset:0;stroke-opacity:1;color-rendering:auto;image-rendering:auto;shape-rendering:auto;text-rendering:auto;enable-background:accumulate"
       d="m 20.634296,1022.3624 c -0.347811,-0.01 -0.634185,0.2869 -0.634296,0.6546 l 0,5.3446 0,5.3447 c -4e-6,0.5041 0.516432,0.8192 0.929655,0.5672 l 4.380141,-2.6723 4.380444,-2.6723 c 0.413013,-0.2522 0.413013,-0.8821 0,-1.1342 l -4.380444,-2.6724 -4.380141,-2.6723 c -0.08995,-0.055 -0.191514,-0.085 -0.295359,-0.088 z"
       id="path6015"
       inkscape:connector-curvature="0"
       sodipodi:nodetypes="ccccccccccc" />
    <path
       style="opacity:0.2;fill:#ffffff;fill-opacity:1;stroke:none;stroke-width:1.00148869;stroke-opacity:1"
       d="m 24,1008.3622 a 20,19.999804 0 0 0 -20,20 20,19.999804 0 0 0 0.02148,0.582 20,19.999804 0 0 1 19.97852,-19.582 20,19.999804 0 0 1 19.978516,19.418 20,19.999804 0 0 0 0.02148,-0.418 20,19.999804 0 0 0 -20,-20 z"
       id="ellipse4425"
       inkscape:connector-curvature="0" />
    <path
       style="opacity:0.3;fill:#000000;fill-opacity:1;stroke:none;stroke-width:1.00148869;stroke-opacity:1"
       d="M 43.978516,1027.7802 A 20,19.999804 0 0 1 24,1047.3622 20,19.999804 0 0 1 4.021484,1027.9442 20,19.999804 0 0 0 4,1028.3622 a 20,19.999804 0 0 0 20,20 20,19.999804 0 0 0 20,-20 20,19.999804 0 0 0 -0.02148,-0.582 z"
       id="ellipse4433"
       inkscape:connector-curvature="0" />
  </g>
</svg>
